src/img/cancel-ico.svg

<svg width="12" height="12" viewBox="0 0 12 12" fill="none" xmlns="http://www.w3.org/2000/svg">
<path d="M5.42613 6.00184L0.114426 11.3507C-0.0331419 11.4993 -0.0331419 11.74 0.114426 11.8886C0.188117 11.963 0.284871 12 0.381437 12C0.478191 12 0.574757 11.963 0.648447 11.8886L6.00009 6.49956L11.3517 11.8886C11.4256 11.963 11.5222 12 11.6188 12C11.7153 12 11.8121 11.963 11.8858 11.8886C12.0333 11.74 12.0333 11.4993 11.8858 11.3507L6.57424 6.00184L11.8893 0.649248C12.0369 0.500649 12.0369 0.259907 11.8893 0.111308C11.7418 -0.0371026 11.5027 -0.0371026 11.3553 0.111308L6.00028 5.50412L0.644697 0.111497C0.497129 -0.0369138 0.258244 -0.0369138 0.110676 0.111497C-0.0368921 0.260096 -0.0368921 0.500838 0.110676 0.649437L5.42613 6.00184Z" fill="#CCCCCC"/>
</svg>

<svg width="12" height="12" viewBox="0 0 12 12" fill="none" xmlns="http://www.w3.org/2000/svg"><path d="M5.426 6.002L.114 11.35A.382.382 0 0 0 .381 12a.374.374 0 0 0 .267-.111L6 6.499l5.352 5.39a.375.375 0 0 0 .534 0 .382.382 0 0 0 0-.538L6.574 6 11.89.65a.382.382 0 0 0 0-.538.376.376 0 0 0-.534 0L6 5.504.645.111a.376.376 0 0 0-.534 0 .382.382 0 0 0 0 .538l5.315 5.353z" fill="#CCC"/></svg>
